; generated by PrusaSlicer 2.7.1+MacOS-arm64 on 2024-01-30 at 21:44:05 UTC


;
;

;
;

;
;

;
;
; 

; external perimeters extrusion width = 0.45mm
; perimeters extrusion width = 0.45mm
; infill extrusion width = 0.45mm
; solid infill extrusion width = 0.45mm
; top infill extrusion width = 0.40mm
; first layer extrusion width = 0.42mm

M73 P0 R55
M201 X2500 Y2500 Z400 E5000 ; sets maximum accelerations, mm/sec^2
M203 X180 Y180 Z12 E80 ; sets maximum feedrates, mm / sec
M204 P2000 R1250 T2500 ; sets acceleration (P, T) and retract acceleration (R), mm/sec^2
M205 X8.00 Y8.00 Z2.00 E10.00 ; sets the jerk limits, mm/sec
M205 S0 T0 ; sets the minimum extruding and travel feed rate, mm/sec

M486 S0
M486 Acase.stl
M486 S-1

;TYPE:Custom
M862.3 P "MINI" ; printer model check
G90 ; use absolute coordinates
M83 ; extruder relative mode
M104 S170 ; set extruder temp for bed leveling
M140 S85 ; set bed temp
M109 R170 ; wait for bed leveling temp
M190 S85 ; wait for bed temp
M204 T1250 ; set travel acceleration
G28 ; home all without mesh bed level
G29 ; mesh bed leveling 
M204 T2500 ; restore travel acceleration
M104 S240 ; set extruder temp
G92 E0
G1 Y-2 X179 F2400
G1 Z3 F720
M109 S240 ; wait for extruder temp

; intro line
G1 X170 F1000
G1 Z0.2 F720
G1 X110 E8 F900
G1 X40 E10 F700
G92 E0

M221 S95 ; set flow
G21 ; set units to millimeters
G90 ; use absolute coordinates
M83 ; use relative distances for extrusion
M900 K0.2 ; Filament gcode

M107
;LAYER_CHANGE
;Z:0.2
;HEIGHT:0.2
;BEFORE_LAYER_CHANGE
G92 E0.0
;0.2


G1 E-3.2 F2700
G1 Z.2 F720
;AFTER_LAYER_CHANGE
;0.2
G1 X52.768 Y72.642 F9000
G1 Z.2 F720
G1 E3.2 F1500
M204 P600
;TYPE:Skirt/Brim
;WIDTH:0.42
G1 F1200
G1 X71.282 Y59.193 E.71749
G3 X75.5 Y57.823 I4.414 J6.409 E.14101
G1 X137 Y57.823 E1.92829
G1 X138.024 Y58.055 E.03292
G1 X151.42 Y64.474 E.46575
G3 X153.502 Y68.2 I-2.395 J3.784 E.1395
G1 X153.502 Y111.8 E1.36705
G3 X150.962 Y115.773 I-4.501 J-.08 E.15561
G1 X138.024 Y121.945 E.44946
G1 X137 Y122.177 E.03292
G1 X74.874 Y122.148 E1.94792
G1 X18.623 Y116.164 E1.77366
G1 X17.365 Y115.636 E.04278
G1 X16.604 Y114.503 E.04279
G1 X16.498 Y113.8 E.02229
G1 X16.498 Y100.2 E.42642
G1 X16.89 Y98.893 E.04278
G1 X17.478 Y98.277 E.0267
G1 X52.719 Y72.677 E1.36573
M204 P1000
M486 S0
G1 E-2.24 F2700
M73 P1 R55
;WIPE_START
G1 F7200
G1 X52.768 Y72.642 E-.02145
G1 X54.899 Y71.094 E-.93855
;WIPE_END
G1 Z.4 F720
G1 X136.538 Y113.026 F9000
G1 Z.2 F720
G1 E3.2 F1500
M204 P600
;TYPE:Perimeter
;WIDTH:0.419999
G1 F1200
G2 X136.158 Y113.261 I.146 J.662 E.01428
G1 X136.062 Y113.526 E.00884
G1 X136.213 Y114.521 E.03155
G1 X136.213 Y119.013 E.14084
G1 X131.787 Y119.013 E.13877
G1 X131.787 Y115.787 E.10115
G2 X131.587 Y115.355 I-.677 J.051 E.01525
G1 X128.977 Y113.147 E.10719
G2 X128.612 Y113.013 I-.418 J.574 E.01235
G1 X81.37 Y113.024 E1.48124
G1 X81.114 Y113.147 E.00891
G1 X79.702 Y114.342 E.058
G2 X79.501 Y114.774 I.476 J.483 E.01526
G1 X79.512 Y119.013 E.13291
G1 X75.622 Y119.013 E.12197
G3 X71.685 Y116.24 I-.081 J-4.066 E.16158
G3 X71.487 Y114.979 I5.313 J-1.478 E.04011
G1 X71.477 Y113.475 E.04716
G2 X70.921 Y113.013 I-.588 J.142 E.02429
G1 X19.662 Y113.013 E1.60719
G1 X19.662 Y100.987 E.37707
G1 X79.168 Y100.983 E1.86577
G2 X79.662 Y100.421 I-.105 J-.591 E.02533
G1 X79.662 Y71.681 E.90112
G2 X79.462 Y71.249 I-.683 J.055 E.01524
G1 X76.852 Y69.041 E.10719
G1 X76.585 Y68.916 E.00924
G1 X75.479 Y69.013 E.03481
G1 X71.487 Y69.013 E.12517
G1 X71.487 Y65.123 E.12197
G3 X74.26 Y61.185 I4.066 J-.082 E.16161
G3 X75.521 Y60.987 I1.478 J5.312 E.04011
G1 X79.513 Y60.987 E.12517
G1 X79.513 Y64.877 E.12197
G2 X79.534 Y65.418 I3.257 J.142 E.01699
G1 X79.701 Y65.658 E.00917
G1 X81.114 Y66.853 E.05802
G2 X81.479 Y66.987 I.467 J-.709 E.0123
G1 X128.607 Y66.987 E1.47766
G2 X128.977 Y66.853 I-.046 J-.706 E.0125
G1 X131.587 Y64.645 E.10719
G2 X131.787 Y64.213 I-.491 J-.49 E.01524
G1 X131.787 Y60.987 E.10115
G1 X136.213 Y60.987 E.13877
G1 X136.213 Y65.465 E.1404
G3 X136.062 Y66.474 I-7.015 J-.532 E.03202
G2 X136.346 Y66.913 I.667 J-.12 E.01683
G1 X136.625 Y66.987 E.00905
G1 X148.968 Y66.987 E.38701
G1 X149.498 Y67.054 E.01675
M73 P1 R54
G3 X150.271 Y67.836 I-.426 J1.194 E.03566
G1 X150.338 Y68.304 E.01482
G1 X150.338 Y111.643 E1.35886
G1 X150.271 Y112.173 E.01675
G3 X149.934 Y112.699 I-2.091 J-.97 E.01965
G3 X149.251 Y113.003 I-.989 J-1.304 E.02365
G1 X136.625 Y113.013 E.39588
G2 X136.598 Y113.016 I.059 J.675 E.00085
M204 P1000
G1 X136.625 Y113.39 F9000
M204 P600
;TYPE:External perimeter
G1 F1200
G2 X136.438 Y113.561 I.028 J.219 E.00846
G3 X136.59 Y114.511 I-8.112 J1.787 E.03018
G1 X136.59 Y119.39 E.15298
G1 X131.41 Y119.39 E.16241
G1 X131.41 Y115.787 E.11297
G1 X131.343 Y115.643 E.00498
G1 X128.733 Y113.435 E.10719
G1 X128.612 Y113.39 E.00405
G1 X81.479 Y113.39 E1.47782
G1 X81.357 Y113.435 E.00408
G1 X79.945 Y114.63 E.058
G1 X79.878 Y114.774 E.00498
G1 X79.889 Y119.39 E.14473
G1 X75.622 Y119.39 E.13379
G3 X73.51 Y118.905 I-.027 J-4.731 E.06855
G3 X71.594 Y116.99 I2.059 J-3.974 E.08629
G3 X71.11 Y114.989 I4.252 J-2.088 E.06507
G1 X71.11 Y113.579 E.04421
G2 X70.921 Y113.39 I-.219 J.03 E.009
G1 X19.285 Y113.39 E1.61901
G1 X19.285 Y100.61 E.40071
G1 X79.096 Y100.61 E1.87533
G2 X79.285 Y100.421 I-.029 J-.218 E.00901
G1 X79.285 Y71.681 E.90112
G1 X79.218 Y71.537 E.00498
M73 P2 R54
G1 X76.563 Y69.3 E.10885
G1 X75.489 Y69.39 E.03379
G1 X71.11 Y69.39 E.1373
G1 X71.11 Y65.123 E.13379
G3 X71.594 Y63.01 I4.732 J-.027 E.06858
G3 X73.51 Y61.094 I3.975 J2.059 E.08631
G3 X75.511 Y60.61 I2.088 J4.252 E.06507
G1 X79.89 Y60.61 E.1373
G1 X79.878 Y65.216 E.14442
G1 X79.945 Y65.37 E.00527
G1 X81.357 Y66.565 E.058
G1 X81.479 Y66.61 E.00408
G1 X128.607 Y66.61 E1.47766
G1 X128.733 Y66.565 E.0042
G1 X131.343 Y64.357 E.10719
G1 X131.41 Y64.213 E.00498
G1 X131.41 Y60.61 E.11297
G1 X136.59 Y60.61 E.16241
G1 X136.59 Y65.343 E.1484
G3 X136.437 Y66.407 I-5.277 J-.213 E.03376
G2 X136.625 Y66.61 I.22 J-.014 E.00938
G1 X149.104 Y66.61 E.39127
G1 X149.616 Y66.691 E.01625
G1 X150.058 Y66.916 E.01555
G3 X150.503 Y67.428 I-2.148 J2.318 E.02131
G3 X150.715 Y68.304 I-1.663 J.865 E.02854
G1 X150.715 Y111.779 E1.36313
G1 X150.634 Y112.291 E.01625
G3 X150.188 Y112.981 I-1.848 J-.708 E.02595
G3 X149.291 Y113.38 I-1.3 J-1.713 E.03106
G1 X136.685 Y113.39 E.39525
M204 P1000
G1 E-2.24 F2700
;WIPE_START
G1 F7200
G1 X136.625 Y113.39 E-.02138
G2 X136.438 Y113.561 I.029 J.219 E-.09614
G3 X136.59 Y114.511 I-8.112 J1.785 E-.34293
G1 X136.59 Y115.913 E-.49955
;WIPE_END
G1 Z.4 F720
G1 X108.932 Y89.621 F9000
G1 Z.2 F720
G1 E3.2 F1500
M204 P600
;TYPE:Perimeter
G1 F1200
G3 X108.979 Y89.568 I.548 J.442 E.00222
G1 X130.278 Y71.546 E.8748
G3 X130.643 Y71.413 I.417 J.575 E.01234
G1 X143.357 Y71.425 E.39864
G1 X144.174 Y71.624 E.02637
G1 X144.92 Y72.074 E.02732
G1 X145.343 Y72.516 E.01918
G1 X145.742 Y73.257 E.02639
G1 X145.912 Y74.194 E.02986
G1 X145.912 Y105.806 E.99117
G1 X145.797 Y106.576 E.02441
G1 X145.427 Y107.363 E.02727
G3 X144.688 Y108.101 I-4.593 J-3.854 E.03279
G1 X144.069 Y108.417 E.02179
G1 X143.131 Y108.587 E.02989
G1 X130.643 Y108.587 E.39155
G3 X130.278 Y108.453 I.052 J-.708 E.01235
G1 X108.979 Y90.432 E.87478
G3 X108.779 Y90 I.501 J-.495 E.01523
G3 X108.896 Y89.67 I.701 J.063 E.01109
M204 P1000
G1 X109.223 Y89.856 F9000
M204 P600
;TYPE:External perimeter
G1 F1200
G1 X130.521 Y71.834 E.87478
G1 X130.643 Y71.79 E.00407
G1 X143.357 Y71.802 E.39864
G1 X144.077 Y71.988 E.02332
G1 X144.714 Y72.391 E.02363
G1 X145.063 Y72.768 E.01611
G1 X145.406 Y73.428 E.02332
G1 X145.535 Y74.194 E.02436
G1 X145.535 Y105.806 E.99117
G1 X145.424 Y106.516 E.02253
G1 X145.091 Y107.192 E.02363
G1 X144.564 Y107.731 E.02364
G1 X143.898 Y108.081 E.02359
G1 X143.131 Y108.21 E.02439
G1 X130.643 Y108.21 E.39155
G1 X130.521 Y108.165 E.00408
G1 X109.223 Y90.144 E.87476
G3 X109.19 Y89.906 I.163 J-.144 E.00798
M204 P1000
G1 E-2.24 F2700
;WIPE_START
G1 F7200
G1 X109.223 Y89.856 E-.02134
G1 X111.234 Y88.154 E-.93866
;WIPE_END
G1 Z.4 F720
G1 X87.829 Y72.296 F9000
G1 Z.2 F720
G1 E3.2 F1500
M204 P600
;TYPE:Perimeter
G1 F1200
G3 X87.825 Y72.249 I.677 J-.078 E.00148
G1 X87.965 Y71.784 E.01523
G3 X88.497 Y71.413 I.567 J.245 E.02141
G1 X121.594 Y71.413 E1.03773
G1 X121.888 Y71.495 E.00957
G1 X122.076 Y71.682 E.00831
G1 X122.26 Y72.184 E.01676
G1 X122.237 Y72.449 E.00834
G1 X122.066 Y72.701 E.00955
G1 X105.411 Y86.794 E.68407
G1 X105.139 Y86.92 E.0094
G3 X104.68 Y86.794 I-.054 J-.701 E.01522
G1 X88.025 Y72.701 E.68407
G3 X87.838 Y72.355 I.481 J-.483 E.01251
M204 P1000
G1 X88.202 Y72.262 F9000
M204 P600
;TYPE:External perimeter
G1 F1200
G1 X88.362 Y71.846 E.01397
G1 X88.497 Y71.79 E.00458
G1 X121.594 Y71.79 E1.03773
G1 X121.729 Y71.846 E.00458
G1 X121.887 Y72.241 E.01334
G1 X121.88 Y72.329 E.00277
G1 X121.823 Y72.413 E.00318
G1 X105.167 Y86.506 E.68409
G1 X105.014 Y86.548 E.00497
G1 X104.212 Y85.904 E.03225
G1 X88.268 Y72.413 E.65486
G1 X88.226 Y72.317 E.00329
M204 P1000
G1 E-2.24 F2700
;WIPE_START
G1 F7200
G1 X88.202 Y72.262 E-.02138
G1 X88.362 Y71.846 E-.15878
G1 X88.497 Y71.79 E-.05207
G1 X90.54 Y71.79 E-.72777
;WIPE_END
G1 Z.4 F720
G1 X122.034 Y108.36 F9000
G1 Z.2 F720
G1 E3.2 F1500
M204 P600
;TYPE:Perimeter
G1 F1200
G1 X121.888 Y108.505 E.00645
G1 X121.594 Y108.587 E.00957
G1 X88.497 Y108.587 E1.03773
G1 X88.203 Y108.505 E.00957
G1 X88.015 Y108.318 E.00831
G1 X87.828 Y107.797 E.01736
G3 X88.025 Y107.299 I.676 J-.021 E.01726
G1 X104.68 Y93.206 E.68407
G3 X105.139 Y93.08 I.405 J.575 E.01522
M73 P3 R54
G1 X105.411 Y93.206 E.0094
G1 X122.066 Y107.299 E.68407
G1 X122.237 Y107.551 E.00955
G1 X122.26 Y107.816 E.00834
G1 X122.076 Y108.318 E.01676
M204 P1000
G1 X121.755 Y108.12 F9000
M204 P600
;TYPE:External perimeter
G1 F1200
G3 X121.594 Y108.21 I-.25 J-.258 E.00585
G1 X88.497 Y108.21 E1.03773
G1 X88.362 Y108.154 E.00458
G1 X88.202 Y107.737 E.014
G1 X88.268 Y107.587 E.00514
G1 X104.924 Y93.494 E.68409
G1 X105.077 Y93.452 E.00497
G1 X105.879 Y94.096 E.03225
G1 X121.823 Y107.587 E.65486
G1 X121.889 Y107.717 E.00457
G1 X121.774 Y108.063 E.01143
M204 P1000
G1 E-2.24 F2700
;WIPE_START
G1 F7200
G1 X121.755 Y108.12 E-.0214
G3 X121.594 Y108.21 I-.25 J-.258 E-.06645
G1 X119.146 Y108.21 E-.87215
;WIPE_END
G1 Z.4 F720
G1 X101.159 Y89.621 F9000
G1 Z.2 F720
G1 E3.2 F1500
M204 P600
;TYPE:Perimeter
G1 F1200
G3 X101.312 Y90 I-.548 J.442 E.013
G3 X101.112 Y90.432 I-.701 J-.063 E.01523
G1 X85.275 Y103.831 E.65044
G3 X84.829 Y103.959 I-.407 J-.577 E.01482
G1 X84.335 Y103.748 E.01684
G3 X84.088 Y103.281 I.427 J-.525 E.01702
G1 X84.088 Y76.719 E.83283
G1 X84.116 Y76.543 E.00559
G1 X84.299 Y76.279 E.01007
G1 X84.768 Y76.053 E.01632
G3 X85.275 Y76.169 I.115 J.667 E.01674
G1 X101.112 Y89.568 E.65044
G3 X101.119 Y89.576 I-.501 J.495 E.00033
M204 P1000
G1 X100.868 Y89.856 F9000
M204 P600
;TYPE:External perimeter
G1 F1200
G3 X100.868 Y90.144 I-.164 J.144 E.00987
G1 X85.032 Y103.544 E.65043
G1 X84.883 Y103.586 E.00485
G1 X84.509 Y103.401 E.01308
G1 X84.465 Y103.281 E.00401
G1 X84.465 Y76.719 E.83283
G1 X84.535 Y76.572 E.0051
M73 P3 R53
G1 X84.899 Y76.412 E.01247
G1 X85.032 Y76.456 E.00439
G1 X100.822 Y89.817 E.64854
M204 P1000
G1 E-2.24 F2700
;WIPE_START
G1 F7200
G1 X100.868 Y89.856 E-.02148
G3 X100.868 Y90.144 I-.163 J.144 E-.1121
G1 X99.097 Y91.642 E-.82642
;WIPE_END
G1 Z.4 F720
G1 X150.144 Y68.016 F9000
G1 Z.2 F720
G1 E3.2 F1500
M204 P600
;TYPE:Solid infill
;WIDTH:0.421146
G1 F1200
G1 X149.63 Y67.502 E.02286
G2 X148.92 Y67.326 I-.64 J1.066 E.02335
G1 X149.999 Y68.405 E.04799
G1 X149.999 Y68.94 E.01683
G1 X148.385 Y67.326 E.07179
G1 X147.85 Y67.326 E.01683
G1 X149.999 Y69.475 E.09558
G1 X149.999 Y70.01 E.01683
G1 X147.315 Y67.326 E.11937
G1 X146.78 Y67.326 E.01683
G1 X149.999 Y70.545 E.14317
G1 X149.999 Y71.08 E.01683
G1 X146.245 Y67.326 E.16696
G1 X145.71 Y67.326 E.01683
G1 X149.999 Y71.615 E.19076
G1 X149.999 Y72.15 E.01683
G1 X145.175 Y67.326 E.21455
G1 X144.641 Y67.326 E.01679
G1 X149.999 Y72.684 E.2383
G1 X149.999 Y73.219 E.01683
G1 X144.106 Y67.326 E.2621
G1 X143.571 Y67.326 E.01683
G1 X149.999 Y73.754 E.28589
G1 X149.999 Y74.289 E.01683
G1 X143.036 Y67.326 E.30969
G1 X142.501 Y67.326 E.01683
G1 X149.999 Y74.824 E.33348
G1 X149.999 Y75.359 E.01683
G1 X141.966 Y67.326 E.35728
G1 X141.431 Y67.326 E.01683
G1 X149.999 Y75.894 E.38107
G1 X149.999 Y76.429 E.01683
G1 X140.896 Y67.326 E.40487
G1 X140.361 Y67.326 E.01683
G1 X144.382 Y71.347 E.17884
G3 X145.267 Y71.924 I-1.995 J4.027 E.0333
G3 X145.948 Y72.913 I-2.009 J2.112 E.03804
G1 X149.999 Y76.964 E.18017
G1 X149.999 Y77.498 E.01679
G1 X146.177 Y73.677 E.16997
G3 X146.251 Y74.286 I-4.124 J.814 E.01931
G1 X149.999 Y78.033 E.16668
G1 X149.999 Y78.568 E.01683
G1 X146.251 Y74.821 E.16668
G1 X146.251 Y75.356 E.01683
G1 X149.999 Y79.103 E.16668
G1 X149.999 Y79.638 E.01683
G1 X146.251 Y75.891 E.16668
G1 X146.251 Y76.426 E.01683
G1 X149.999 Y80.173 E.16668
G1 X149.999 Y80.708 E.01683
G1 X146.251 Y76.961 E.16668
G1 X146.251 Y77.496 E.01683
G1 X149.999 Y81.243 E.16668
G1 X149.999 Y81.778 E.01683
G1 X146.251 Y78.031 E.16668
G1 X146.251 Y78.565 E.01679
G1 X149.999 Y82.313 E.1667
G1 X149.999 Y82.847 E.01679
G1 X146.251 Y79.1 E.16668
G1 X146.251 Y79.635 E.01683
G1 X149.999 Y83.382 E.16668
G1 X149.999 Y83.917 E.01683
G1 X146.251 Y80.17 E.16668
G1 X146.251 Y80.705 E.01683
G1 X149.999 Y84.452 E.16668
G1 X149.999 Y84.987 E.01683
G1 X146.251 Y81.24 E.16668
G1 X146.251 Y81.775 E.01683
G1 X149.999 Y85.522 E.16668
G1 X149.999 Y86.057 E.01683
G1 X146.251 Y82.31 E.16668
G1 X146.251 Y82.845 E.01683
G1 X149.999 Y86.592 E.16668
G1 X149.999 Y87.127 E.01683
G1 X146.251 Y83.379 E.1667
G1 X146.251 Y83.914 E.01683
G1 X149.999 Y87.661 E.16668
G1 X149.999 Y88.196 E.01683
G1 X146.251 Y84.449 E.16668
G1 X146.251 Y84.984 E.01683
G1 X149.999 Y88.731 E.16668
G1 X149.999 Y89.266 E.01683
G1 X146.251 Y85.519 E.16668
G1 X146.251 Y86.054 E.01683
G1 X149.999 Y89.801 E.16668
G1 X149.999 Y90.336 E.01683
G1 X146.251 Y86.589 E.16668
G1 X146.251 Y87.124 E.01683
G1 X149.999 Y90.871 E.16668
G1 X149.999 Y91.406 E.01683
G1 X146.251 Y87.659 E.16668
G1 X146.251 Y88.193 E.01679
G1 X149.999 Y91.941 E.1667
G1 X149.999 Y92.475 E.01679
G1 X146.251 Y88.728 E.16668
G1 X146.251 Y89.263 E.01683
G1 X149.999 Y93.01 E.16668
G1 X149.999 Y93.545 E.01683
G1 X146.251 Y89.798 E.16668
G1 X146.251 Y90.333 E.01683
G1 X149.999 Y94.08 E.16668
G1 X149.999 Y94.615 E.01683
G1 X146.251 Y90.868 E.16668
G1 X146.251 Y91.403 E.01683
G1 X149.999 Y95.15 E.16668
G1 X149.999 Y95.685 E.01683
G1 X146.251 Y91.938 E.16668
G1 X146.251 Y92.473 E.01683
G1 X149.999 Y96.22 E.16668
G1 X149.999 Y96.755 E.01683
G1 X146.251 Y93.007 E.1667
G1 X146.251 Y93.542 E.01683
G1 X149.999 Y97.289 E.16668
G1 X149.999 Y97.824 E.01683
G1 X146.251 Y94.077 E.16668
G1 X146.251 Y94.612 E.01683
M73 P4 R53
G1 X149.999 Y98.359 E.16668
G1 X149.999 Y98.894 E.01683
G1 X146.251 Y95.147 E.16668
G1 X146.251 Y95.682 E.01683
G1 X149.999 Y99.429 E.16668
G1 X149.999 Y99.964 E.01683
G1 X146.251 Y96.217 E.16668
G1 X146.251 Y96.752 E.01683
G1 X149.999 Y100.499 E.16668
G1 X149.999 Y101.034 E.01683
G1 X146.251 Y97.287 E.16668
G1 X146.251 Y97.822 E.01683
G1 X149.999 Y101.569 E.16668
G1 X149.999 Y102.104 E.01683
G1 X146.251 Y98.356 E.1667
G1 X146.251 Y98.891 E.01683
G1 X149.999 Y102.638 E.16668
G1 X149.999 Y103.173 E.01683
G1 X146.251 Y99.426 E.16668
G1 X146.251 Y99.961 E.01683
G1 X149.999 Y103.708 E.16668
G1 X149.999 Y104.243 E.01683
G1 X146.251 Y100.496 E.16668
G1 X146.251 Y101.031 E.01683
G1 X149.999 Y104.778 E.16668
G1 X149.999 Y105.313 E.01683
G1 X146.251 Y101.566 E.16668
G1 X146.251 Y102.101 E.01683
G1 X149.999 Y105.848 E.16668
G1 X149.999 Y106.383 E.01683
G1 X146.251 Y102.636 E.16668
G1 X146.251 Y103.17 E.01679
G1 X149.999 Y106.918 E.1667
G1 X149.999 Y107.452 E.01679
G1 X146.251 Y103.705 E.16668
G1 X146.251 Y104.24 E.01683
G1 X149.999 Y107.987 E.16668
G1 X149.999 Y108.522 E.01683
G1 X146.251 Y104.775 E.16668
G1 X146.251 Y105.31 E.01683
G1 X149.999 Y109.057 E.16668
G1 X149.999 Y109.592 E.01683
G1 X146.248 Y105.841 E.16683
G1 X146.179 Y106.307 E.01482
G1 X149.999 Y110.127 E.1699
G1 X149.999 Y110.662 E.01683
G1 X146.093 Y106.756 E.17373
G3 X145.928 Y107.126 I-1.703 J-.54 E.01277
