; generated by PrusaSlicer 2.7.1+MacOS-arm64 on 2024-01-29 at 21:14:26 UTC


;
;

;
;

;
;

;
;
; 

; external perimeters extrusion width = 0.45mm
; perimeters extrusion width = 0.45mm
; infill extrusion width = 0.45mm
; solid infill extrusion width = 0.45mm
; top infill extrusion width = 0.40mm
; first layer extrusion width = 0.42mm

M73 P0 R33
M201 X2500 Y2500 Z400 E5000 ; sets maximum accelerations, mm/sec^2
M203 X180 Y180 Z12 E80 ; sets maximum feedrates, mm / sec
M204 P2000 R1250 T2500 ; sets acceleration (P, T) and retract acceleration (R), mm/sec^2
M205 X8.00 Y8.00 Z2.00 E10.00 ; sets the jerk limits, mm/sec
M205 S0 T0 ; sets the minimum extruding and travel feed rate, mm/sec

M486 S0
M486 Acase.stl
M486 S-1

;TYPE:Custom
M862.3 P "MINI" ; printer model check
G90 ; use absolute coordinates
M83 ; extruder relative mode
M104 S170 ; set extruder temp for bed leveling
M140 S85 ; set bed temp
M109 R170 ; wait for bed leveling temp
M190 S85 ; wait for bed temp
M204 T1250 ; set travel acceleration
G28 ; home all without mesh bed level
G29 ; mesh bed leveling 
M204 T2500 ; restore travel acceleration
M104 S240 ; set extruder temp
G92 E0
G1 Y-2 X179 F2400
G1 Z3 F720
M109 S240 ; wait for extruder temp

; intro line
G1 X170 F1000
G1 Z0.2 F720
G1 X110 E8 F900
G1 X40 E10 F700
G92 E0

M221 S95 ; set flow
G21 ; set units to millimeters
G90 ; use absolute coordinates
M83 ; use relative distances for extrusion
M900 K0.2 ; Filament gcode

M107
;LAYER_CHANGE
;Z:0.2
;HEIGHT:0.2
;BEFORE_LAYER_CHANGE
G92 E0.0
;0.2


G1 E-3.2 F2700
G1 Z.2 F720
;AFTER_LAYER_CHANGE
;0.2
G1 X62.053 Y68.568 F9000
G1 Z.2 F720
G1 E3.2 F1500
M204 P600
;TYPE:Skirt/Brim
;WIDTH:0.42
G1 F1200
G1 X71.228 Y60.265 E.38798
G3 X75.5 Y58.623 I4.398 J5.062 E.14644
G1 X137 Y58.623 E1.92829
G1 X137.912 Y58.805 E.02916
M73 P1 R33
G1 X151.204 Y64.35 E.45157
G3 X153.502 Y68.2 I-2.182 J3.913 E.14723
G1 X153.499 Y111.925 E1.37097
G3 X151.017 Y115.745 I-4.494 J-.203 E.14977
G1 X137.912 Y121.195 E.44501
G1 X137 Y121.377 E.02916
G1 X75.5 Y121.377 E1.92829
G1 X28.61 Y116.162 E1.47927
G1 X27.355 Y115.628 E.04276
G1 X26.6 Y114.491 E.04279
G1 X26.498 Y113.8 E.0219
G1 X26.498 Y101.8 E.37625
G1 X27.28 Y100.038 E.06044
G1 X62.009 Y68.609 E1.4686
M204 P1000
M486 S0
G1 E-2.24 F2700
;WIPE_START
G1 F7200
G1 X62.053 Y68.568 E-.02143
G1 X64.007 Y66.8 E-.93857
;WIPE_END
G1 Z.4 F720
G1 X72.276 Y113.548 F9000
G1 Z.2 F720
G1 E3.2 F1500
M204 P600
;TYPE:Perimeter
;WIDTH:0.419999
G1 F1200
G1 X72.275 Y113.46 E.00276
G2 X71.721 Y113.013 I-.585 J.157 E.02386
G1 X29.662 Y113.013 E1.31873
G1 X29.662 Y102.587 E.3269
M73 P1 R32
G1 X78.171 Y102.587 E1.52096
G1 X79.252 Y102.565 E.0339
G2 X79.662 Y102.021 I-.192 J-.571 E.0227
G1 X79.662 Y71.681 E.95129
G2 X79.462 Y71.249 I-.683 J.055 E.01524
M73 P2 R32
G1 X76.056 Y68.368 E.13987
G2 X75.655 Y68.205 I-.464 J.567 E.01378
G1 X72.287 Y68.212 E.1056
G1 X72.287 Y65.035 E.09961
G1 X72.361 Y64.333 E.02213
G3 X73.352 Y62.615 I3.36 J.795 E.06307
G3 X74.508 Y61.948 I2.492 J2.982 E.04205
G3 X75.521 Y61.787 I1.588 J6.742 E.03219
G1 X78.713 Y61.787 E.10008
G1 X78.713 Y64.559 E.08691
G2 X78.913 Y64.991 I.677 J-.051 E.01525
G1 X81.114 Y66.853 E.09039
G2 X81.479 Y66.987 I.467 J-.709 E.0123
G1 X128.607 Y66.987 E1.47766
G2 X128.977 Y66.853 I-.046 J-.706 E.0125
G1 X131.587 Y64.645 E.10719
G2 X131.787 Y64.213 I-.491 J-.49 E.01524
G1 X131.787 Y61.787 E.07607
G1 X136.213 Y61.787 E.13877
G1 X136.213 Y65.465 E.11532
G3 X136.062 Y66.474 I-7.026 J-.533 E.03202
G2 X136.346 Y66.913 I.667 J-.12 E.01683
G1 X136.625 Y66.987 E.00905
G1 X148.968 Y66.987 E.38701
G1 X149.498 Y67.054 E.01675
G3 X150.271 Y67.836 I-.426 J1.194 E.03566
G1 X150.338 Y68.304 E.01482
G1 X150.338 Y111.643 E1.35886
G1 X150.271 Y112.173 E.01675
G3 X149.934 Y112.699 I-2.091 J-.97 E.01965
G3 X149.251 Y113.003 I-.989 J-1.304 E.02365
G1 X136.625 Y113.013 E.39588
G2 X136.158 Y113.261 I.059 J.675 E.01703
G1 X136.062 Y113.526 E.00884
G1 X136.213 Y114.521 E.03155
G1 X136.213 Y118.213 E.11576
G1 X131.787 Y118.213 E.13877
G1 X131.787 Y116 E.06939
G1 X131.737 Y115.555 E.01404
G1 X131.587 Y115.355 E.00784
G1 X128.977 Y113.147 E.10719
G2 X128.612 Y113.013 I-.418 J.574 E.01235
G1 X82.382 Y113.013 E1.44951
G1 X81.329 Y113.033 E.03302
G1 X81.114 Y113.147 E.00763
G1 X78.913 Y115.009 E.09039
G2 X78.713 Y115.441 I.482 J.486 E.01525
G1 X78.713 Y118.213 E.08691
G1 X75.535 Y118.213 E.09964
G1 X74.833 Y118.139 E.02213
G3 X73.115 Y117.148 I.795 J-3.36 E.06307
G3 X72.448 Y115.992 I2.981 J-2.492 E.04205
G3 X72.287 Y114.237 I5.972 J-1.431 E.05545
G1 X72.277 Y113.608 E.01972
M204 P1000
G1 X71.91 Y113.579 F9000
M204 P600
;TYPE:External perimeter
G1 F1200
G2 X71.721 Y113.39 I-.218 J.029 E.00901
G1 X29.285 Y113.39 E1.33055
G1 X29.285 Y102.21 E.35054
G1 X79.096 Y102.21 E1.56179
G2 X79.285 Y102.021 I-.03 J-.219 E.009
G1 X79.285 Y71.681 E.95129
G1 X79.218 Y71.537 E.00498
G1 X75.813 Y68.655 E.13987
G1 X75.656 Y68.582 E.00543
G1 X71.91 Y68.59 E.11745
G1 X71.91 Y65.016 E.11206
G1 X71.99 Y64.254 E.02402
G1 X72.222 Y63.54 E.02354
G1 X72.597 Y62.891 E.0235
G1 X73.099 Y62.333 E.02353
G1 X73.706 Y61.892 E.02352
G1 X74.391 Y61.587 E.02351
G3 X75.511 Y61.41 I1.297 J4.578 E.03564
G1 X79.09 Y61.41 E.11222
M73 P3 R32
G1 X79.09 Y64.559 E.09873
G1 X79.154 Y64.701 E.00488
G1 X81.357 Y66.565 E.09048
G1 X81.479 Y66.61 E.00408
G1 X128.607 Y66.61 E1.47766
G1 X128.733 Y66.565 E.0042
G1 X131.343 Y64.357 E.10719
G1 X131.41 Y64.213 E.00498
G1 X131.41 Y61.41 E.08789
G1 X136.59 Y61.41 E.16241
G1 X136.59 Y65.343 E.12332
G3 X136.438 Y66.407 I-5.281 J-.213 E.03376
G2 X136.625 Y66.61 I.219 J-.014 E.00936
G1 X149.104 Y66.61 E.39127
G1 X149.616 Y66.691 E.01625
G1 X150.058 Y66.916 E.01555
G3 X150.503 Y67.428 I-2.148 J2.318 E.02131
G3 X150.715 Y68.304 I-1.663 J.865 E.02854
G1 X150.715 Y111.779 E1.36313
G1 X150.634 Y112.291 E.01625
G3 X150.188 Y112.981 I-1.848 J-.708 E.02595
G3 X149.291 Y113.38 I-1.3 J-1.713 E.03106
G1 X136.625 Y113.39 E.39713
G2 X136.438 Y113.561 I.028 J.219 E.00846
G3 X136.59 Y114.511 I-8.112 J1.787 E.03018
G1 X136.59 Y118.59 E.12789
G1 X131.41 Y118.59 E.16241
G1 X131.41 Y115.787 E.08789
G1 X131.343 Y115.643 E.00498
G1 X128.733 Y113.435 E.10719
G1 X128.612 Y113.39 E.00405
G1 X81.479 Y113.39 E1.47782
G1 X81.357 Y113.435 E.00408
G1 X79.157 Y115.297 E.09037
G1 X79.09 Y115.441 E.00498
G1 X79.09 Y118.59 E.09873
G1 X75.516 Y118.59 E.11206
G1 X74.754 Y118.51 E.02402
G1 X74.04 Y118.278 E.02354
G1 X73.391 Y117.903 E.0235
G1 X72.833 Y117.401 E.02353
G1 X72.392 Y116.794 E.02352
G1 X72.087 Y116.109 E.02351
G3 X71.91 Y114.989 I4.578 J-1.298 E.03564
G1 X71.91 Y113.639 E.04233
M204 P1000
G1 E-2.24 F2700
;WIPE_START
G1 F7200
G1 X71.91 Y113.579 E-.02137
G2 X71.721 Y113.39 I-.218 J.029 E-.10235
G1 X69.374 Y113.39 E-.83628
;WIPE_END
G1 Z.4 F720
G1 X108.932 Y90.379 F9000
G1 Z.2 F720
G1 E3.2 F1500
M204 P600
;TYPE:Perimeter
G1 F1200
G3 X108.779 Y90 I.548 J-.442 E.013
G3 X108.979 Y89.568 I.701 J.063 E.01523
G1 X130.278 Y71.546 E.8748
G3 X130.643 Y71.413 I.417 J.575 E.01234
G1 X143.357 Y71.425 E.39864
G1 X144.174 Y71.624 E.02637
G1 X144.919 Y72.074 E.02729
G1 X145.364 Y72.547 E.02036
G1 X145.743 Y73.259 E.02529
G1 X145.912 Y74.194 E.02979
G1 X145.912 Y105.806 E.99117
G1 X145.797 Y106.576 E.02441
G1 X145.427 Y107.363 E.02727
G3 X144.688 Y108.101 I-4.593 J-3.854 E.03279
G1 X144.069 Y108.417 E.02179
G1 X143.131 Y108.587 E.02989
G1 X130.643 Y108.587 E.39155
G3 X130.278 Y108.453 I.052 J-.708 E.01235
G1 X108.979 Y90.432 E.87478
G3 X108.971 Y90.424 I.501 J-.495 E.00035
M204 P1000
G1 X109.223 Y90.144 F9000
M204 P600
;TYPE:External perimeter
G1 F1200
G3 X109.223 Y89.856 I.163 J-.144 E.00987
G1 X130.521 Y71.834 E.87478
G1 X130.643 Y71.79 E.00407
G1 X143.357 Y71.802 E.39864
G1 X144.077 Y71.988 E.02332
M73 P4 R32
G1 X144.714 Y72.39 E.02362
G1 X145.081 Y72.796 E.01716
G1 X145.406 Y73.429 E.02231
G1 X145.535 Y74.194 E.02432
G1 X145.535 Y105.806 E.99117
G1 X145.424 Y106.516 E.02253
G1 X145.09 Y107.192 E.02364
G1 X144.564 Y107.731 E.02361
G1 X143.898 Y108.081 E.02359
G1 X143.131 Y108.21 E.02439
G1 X130.643 Y108.21 E.39155
G1 X130.521 Y108.165 E.00408
G1 X109.269 Y90.183 E.87287
M204 P1000
G1 E-2.24 F2700
;WIPE_START
G1 F7200
G1 X109.223 Y90.144 E-.02148
G3 X109.223 Y89.856 I.163 J-.144 E-.1121
G1 X110.994 Y88.358 E-.82642
;WIPE_END
G1 Z.4 F720
G1 X122.25 Y107.799 F9000
G1 Z.2 F720
G1 E3.2 F1500
M204 P600
;TYPE:Perimeter
G1 F1200
G3 X122.076 Y108.318 I-1.743 J-.295 E.01723
G1 X121.888 Y108.505 E.00831
G1 X121.594 Y108.587 E.00957
G1 X88.497 Y108.587 E1.03773
G1 X88.203 Y108.505 E.00957
G1 X88.015 Y108.318 E.00831
G1 X87.828 Y107.797 E.01736
G3 X88.025 Y107.299 I.676 J-.021 E.01726
G1 X104.68 Y93.206 E.68407
G1 X104.952 Y93.08 E.0094
G3 X105.411 Y93.206 I.054 J.701 E.01522
G1 X122.066 Y107.299 E.68407
G1 X122.17 Y107.416 E.00491
G1 X122.265 Y107.689 E.00906
G3 X122.259 Y107.739 I-1.758 J-.185 E.00158
M204 P1000
G1 X121.887 Y107.759 F9000
M204 P600
;TYPE:External perimeter
G1 F1200
G1 X121.729 Y108.154 E.01334
G1 X121.594 Y108.21 E.00458
G1 X88.497 Y108.21 E1.03773
G1 X88.362 Y108.154 E.00458
G1 X88.202 Y107.737 E.014
G1 X88.268 Y107.587 E.00514
G1 X104.924 Y93.494 E.68409
G1 X105.077 Y93.452 E.00497
G1 X105.879 Y94.096 E.03225
G1 X121.857 Y107.626 E.65646
G1 X121.874 Y107.701 E.00241
M204 P1000
G1 E-2.24 F2700
;WIPE_START
G1 F7200
G1 X121.887 Y107.759 E-.02118
G1 X121.729 Y108.154 E-.15156
G1 X121.594 Y108.21 E-.05207
G1 X119.53 Y108.21 E-.73519
;WIPE_END
G1 Z.4 F720
G1 X101.159 Y89.621 F9000
G1 Z.2 F720
G1 E3.2 F1500
M204 P600
;TYPE:Perimeter
G1 F1200
G3 X101.312 Y90 I-.548 J.442 E.013
G3 X101.112 Y90.432 I-.701 J-.063 E.01523
G1 X85.275 Y103.831 E.65044
G1 X85.008 Y103.957 E.00926
M73 P4 R31
G1 X84.724 Y103.934 E.00893
G1 X84.278 Y103.704 E.01573
G3 X84.088 Y103.281 I.487 J-.473 E.01484
G1 X84.088 Y76.719 E.83283
G1 X84.116 Y76.543 E.00559
G1 X84.299 Y76.279 E.01007
G1 X84.768 Y76.053 E.01632
G1 X84.878 Y76.036 E.00349
G3 X85.275 Y76.169 I-.021 J.724 E.01332
G1 X101.112 Y89.568 E.65044
G3 X101.119 Y89.576 I-.501 J.495 E.00033
M204 P1000
G1 X100.868 Y89.856 F9000
M204 P600
;TYPE:External perimeter
G1 F1200
G3 X100.868 Y90.144 I-.164 J.144 E.00987
G1 X85.032 Y103.544 E.65043
G1 X84.883 Y103.586 E.00485
G1 X84.508 Y103.4 E.01312
G1 X84.465 Y103.281 E.00397
G1 X84.465 Y76.719 E.83283
G1 X84.535 Y76.572 E.0051
G1 X84.899 Y76.412 E.01247
G1 X85.032 Y76.456 E.00439
G1 X100.822 Y89.817 E.64854
M204 P1000
G1 E-2.24 F2700
M73 P5 R31
;WIPE_START
G1 F7200
G1 X100.868 Y89.856 E-.02148
G3 X100.868 Y90.144 I-.163 J.144 E-.1121
G1 X99.097 Y91.642 E-.82642
;WIPE_END
G1 Z.4 F720
G1 X122.255 Y72.244 F9000
G1 Z.2 F720
G1 E3.2 F1500
M204 P600
;TYPE:Perimeter
G1 F1200
G1 X122.237 Y72.449 E.00645
G1 X122.066 Y72.701 E.00955
G1 X105.411 Y86.794 E.68407
G1 X105.139 Y86.92 E.0094
G3 X104.68 Y86.794 I-.054 J-.701 E.01522
G1 X88.025 Y72.701 E.68407
G3 X87.825 Y72.298 I.474 J-.486 E.01438
G3 X88.015 Y71.682 I1.83 J.226 E.02032
G1 X88.203 Y71.495 E.00831
G1 X88.497 Y71.413 E.00957
G1 X121.594 Y71.413 E1.03773
G1 X121.888 Y71.495 E.00957
G1 X122.076 Y71.682 E.00831
G1 X122.26 Y72.184 E.01676
M204 P1000
G1 X121.887 Y72.241 F9000
M204 P600
;TYPE:External perimeter
G1 F1200
G3 X121.823 Y72.413 I-.357 J-.036 E.00582
G1 X105.167 Y86.506 E.68409
G1 X105.014 Y86.548 E.00497
G1 X104.212 Y85.904 E.03225
G1 X88.268 Y72.413 E.65486
G1 X88.202 Y72.279 E.00468
G1 X88.336 Y71.88 E.0132
G3 X88.497 Y71.79 I.25 J.258 E.00585
G1 X121.594 Y71.79 E1.03773
G1 X121.729 Y71.846 E.00458
G1 X121.865 Y72.185 E.01145
M204 P1000
G1 E-2.24 F2700
;WIPE_START
G1 F7200
G1 X121.887 Y72.241 E-.02143
G3 X121.823 Y72.413 I-.358 J-.035 E-.06611
G1 X119.953 Y73.995 E-.87246
;WIPE_END
G1 Z.4 F720
G1 X135.546 Y61.957 F9000
G1 Z.2 F720
G1 E3.2 F1500
M204 P600
;TYPE:Solid infill
;WIDTH:0.420297
G1 F1200
G1 X135.874 Y62.284 E.01453
G1 X135.874 Y62.818 E.01676
G1 X135.182 Y62.126 E.03071
G1 X134.649 Y62.126 E.01673
G1 X135.874 Y63.351 E.05436
G1 X135.874 Y63.885 E.01676
G1 X134.115 Y62.126 E.07806
G1 X133.581 Y62.126 E.01676
G1 X135.874 Y64.419 E.10176
G1 X135.874 Y64.952 E.01673
G1 X133.048 Y62.126 E.12541
G1 X132.514 Y62.126 E.01676
G1 X135.87 Y65.482 E.14893
G1 X135.814 Y65.96 E.0151
G1 X131.957 Y62.103 E.17116
M204 P1000
G1 E-2.24 F2700
;WIPE_START
G1 F7200
G1 X133.862 Y64.009 E-.96
;WIPE_END
G1 Z.4 F720
G1 X149.327 Y67.199 F9000
G1 Z.2 F720
G1 E3.2 F1500
M204 P600
G1 F1200
G1 X149.839 Y67.711 E.02272
G3 X149.999 Y68.404 I-.95 J.583 E.02271
G1 X148.921 Y67.326 E.04784
G1 X148.388 Y67.326 E.01673
G1 X149.999 Y68.937 E.07149
G1 X149.999 Y69.471 E.01676
G1 X147.854 Y67.326 E.09519
G1 X147.32 Y67.326 E.01676
G1 X149.999 Y70.005 E.11889
G1 X149.999 Y70.538 E.01673
G1 X146.787 Y67.326 E.14254
G1 X146.253 Y67.326 E.01676
G1 X149.999 Y71.072 E.16623
G1 X149.999 Y71.606 E.01676
G1 X145.719 Y67.326 E.18993
G1 X145.186 Y67.326 E.01673
G1 X149.999 Y72.139 E.21358
G1 X149.999 Y72.673 E.01676
G1 X144.652 Y67.326 E.23728
G1 X144.118 Y67.326 E.01676
G1 X149.999 Y73.207 E.26098
G1 X149.999 Y73.74 E.01673
G1 X143.585 Y67.326 E.28463
G1 X143.051 Y67.326 E.01676
G1 X149.999 Y74.274 E.30833
G1 X149.999 Y74.808 E.01676
G1 X142.517 Y67.326 E.33203
G1 X141.984 Y67.326 E.01673
G1 X149.999 Y75.341 E.35568
G1 X149.999 Y75.875 E.01676
G1 X141.45 Y67.326 E.37938
G1 X140.916 Y67.326 E.01676
G1 X149.999 Y76.409 E.40307
G1 X149.999 Y76.943 E.01676
G1 X145.929 Y72.873 E.18061
G2 X145.112 Y71.794 I-2.571 J1.099 E.04289
G2 X144.42 Y71.364 I-3.979 J5.624 E.02558
G1 X140.382 Y67.326 E.17919
G1 X139.849 Y67.326 E.01673
G1 X143.656 Y71.134 E.16896
G2 X143.074 Y71.085 I-.448 J1.863 E.0184
G1 X139.315 Y67.326 E.16681
G1 X138.781 Y67.326 E.01676
G1 X142.54 Y71.085 E.16681
G1 X142.006 Y71.085 E.01676
G1 X138.248 Y67.326 E.16679
G1 X137.714 Y67.326 E.01676
G1 X141.473 Y71.085 E.16681
M73 P6 R31
G1 X140.939 Y71.085 E.01676
G1 X137.011 Y67.157 E.17431
M204 P1000
G1 E-2.24 F2700
;WIPE_START
G1 F7200
G1 X138.916 Y69.063 E-.96
;WIPE_END
G1 Z.4 F720
G1 X131.957 Y62.637 F9000
G1 Z.2 F720
G1 E3.2 F1500
M204 P600
G1 F1200
G1 X135.723 Y66.403 E.16712
G2 X136.647 Y67.326 I.907 J.016 E.04575
G1 X140.405 Y71.085 E.16679
G1 X139.872 Y71.085 E.01673
G1 X132.126 Y63.34 E.34372
G1 X132.126 Y63.874 E.01676
G1 X139.338 Y71.085 E.32002
G1 X138.804 Y71.085 E.01676
G1 X132.108 Y64.389 E.29715
G3 X131.936 Y64.751 I-.8 J-.159 E.01271
G1 X138.27 Y71.085 E.28108
G1 X137.737 Y71.085 E.01673
G1 X131.67 Y65.019 E.26921
G1 X131.381 Y65.263 E.01187
G1 X137.203 Y71.085 E.25836
G1 X136.669 Y71.085 E.01676
G1 X131.092 Y65.508 E.24749
G1 X130.803 Y65.753 E.01189
G1 X136.135 Y71.085 E.23662
G1 X135.602 Y71.085 E.01673
G1 X130.514 Y65.997 E.22579
G1 X130.225 Y66.242 E.01189
G1 X135.068 Y71.085 E.21492
G1 X134.534 Y71.085 E.01676
G1 X129.936 Y66.486 E.20407
G1 X129.647 Y66.731 E.01189
G1 X134 Y71.085 E.19319
G1 X133.467 Y71.085 E.01673
G1 X129.358 Y66.976 E.18234
G3 X129.049 Y67.201 I-.942 J-.969 E.01203
G1 X132.933 Y71.084 E.17234
G1 X132.399 Y71.084 E.01676
G1 X128.639 Y67.324 E.16686
G1 X128.108 Y67.326 E.01666
G1 X131.865 Y71.084 E.16675
G1 X131.332 Y71.084 E.01673
G1 X127.574 Y67.326 E.16677
G1 X127.04 Y67.326 E.01676
G1 X130.798 Y71.084 E.16677
G2 X130.319 Y71.139 I-.128 J1.01 E.01527
G1 X126.506 Y67.326 E.16921
G1 X125.973 Y67.326 E.01673
G1 X129.991 Y71.345 E.17833
G1 X129.702 Y71.589 E.01187
G1 X125.439 Y67.326 E.18918
G1 X124.905 Y67.326 E.01676
G1 X129.413 Y71.834 E.20005
G1 X129.124 Y72.078 E.01187
G1 X124.372 Y67.326 E.21088
G1 X123.838 Y67.326 E.01676
G1 X128.835 Y72.323 E.22175
G1 X128.546 Y72.568 E.01189
G1 X123.304 Y67.326 E.23262
G1 X122.77 Y67.326 E.01676
G1 X128.256 Y72.812 E.24345
G1 X127.967 Y73.057 E.01189
G1 X122.237 Y67.326 E.2543
G1 X121.703 Y67.326 E.01676
G1 X127.678 Y73.302 E.26517
G1 X127.389 Y73.546 E.01187
G1 X121.169 Y67.326 E.27602
G1 X120.636 Y67.326 E.01673
G1 X127.1 Y73.791 E.28687
G1 X126.811 Y74.035 E.01187
G1 X120.102 Y67.326 E.29772
G1 X119.568 Y67.326 E.01676
G1 X126.522 Y74.28 E.3086
G1 X126.233 Y74.525 E.01189
G1 X119.034 Y67.326 E.31947
G1 X118.501 Y67.326 E.01673
G1 X125.944 Y74.769 E.3303
G1 X125.655 Y75.014 E.01189
G1 X122.518 Y71.877 E.13921
G2 X122.24 Y71.343 I-1.363 J.37 E.01904
